X:1
T:James Gibb editions
T:Psalm 8 (Becker) - Schütz
%%score [ ( 1 2 ) ( 3 4 ) ]
L:1/8
Q:1/4=100
M:2/2
K:F
V:1 treble nm="Soprano Alto"
V:2 treble 
V:3 bass nm="Tenor Bass"
V:4 bass 
V:1
"^Cornelius Becker\n(1561-1604)""^Heinrich Schütz\n(1585-1672)""^Psalm 8, SWV 104" B4 B4 | %1
w: ~Mit Dank|
w: dein Herr-|
 B2 B4 c2 | A4 A2 B2 | c2 d2 _e2 c2 | B8 :|[M:2/2][Q:1/4=80][Q:1/4=80] d4 f4 | _e2 d4 d2 | c6 f2 | %8
w: wir sol- len|lo- ben dein's|Na- mens Her- lich-|keit,|in dei-|nem Reich, Herr|Christ, schon|
w: schaft hoch er-|ho- ben, in|al- len Lan- den|weit,||||
 c2 B2 c2 d2 | _e4 !courtesy!_e2 d2 | B2 A2 B2 c2 | d4 d2 G2 | c2 B2 G2 A2 | G8 |] %14
w: durch der Kin- der|Zun- gen, der|Un- münd'- gen und|Jun- gen, dein|Lob be- rei- tet|hast.|
w: ||||||
V:2
 G4 G4 | G2 G4 G2 | ^F4 F2 D2 | F2 F2 G2 F2 | F8 :|[M:2/2] F4 D4 | G2 F4 F2 | F6 C2 | F2 D2 F2 F2 | %9
 _E4 C2 F2 | _E2 C2 E2 E2 | D4 F2 _E2 | ^F2 G2 G2 F2 | G8 |] %14
V:3
 D4 D4 | D2 D4 _E2 | D4 D2 B,2 | A,2 B,2 B,2 A,2 | B,8 :|[M:2/2] B,4 F,4 | C2 A,4 B,2 | A,6 A,2 | %8
 A,2 G,2 A,2 B,2 | C2 G,4 B,2 | %10
"^3. Wie groß ist deine Gnade, o du getreuer Herr,\ndass dich der Menschen Schade erbarmet hat so sehr,\nzu helfen uns aus Not, dein lieber Sohn mußt' sterben,\ndas Heil uns zu erwerben, kost's ihm sein teures Blut.\n\n4. Ein kleines wurd' verlassen von Gott des Menschen Sohn,\ndarnach gekrönt ohn' Maßen mit Ehr und Schmuck so schon,\ngesetzt auf Gottes Thron, wurd' er gemacht zum Herren,\ndem Könige der Ehren ist alles untertan.\n\n5. Zahm und wild' Tier zugleichen, auch die Waldvögelein,\nFisch, die im Wasser streichen, ihm untergeben sein,\ndarum sein Herrlichkeit mit Dank wir sollen loben,\nHerrschaft hoch erhoben in allen Landen weit." G,2 F,2 G,2 A,2 | %11
 B,2 F,4 C2 | C2 D2 _E2 D2 | D8 |] %14
V:4
 G,4 G,4 | G,2 G,4 C,2 | D,4 D,2 G,2 | F,2 B,2 _E,2 F,2 | B,,8 :|[M:2/2] B,,4 B,,4 | C,2 D,4 B,,2 | %7
 F,6 F,2 | F,2 G,2 F,2 D,2 | C,4 C,2 D,2 | _E,2 F,2 !courtesy!_E,2 C,2 | B,,4 B,,2 C,2 | %12
 A,,2 G,,2 C,2 D,2 | G,,8 |] %14

